icon-themes/sifr_svg/cmd/sc_flowchartshapes.flowchart-manual-operation.svg

<svg viewBox="0 0 16 16" xmlns="http://www.w3.org/2000/svg"><g fill="#555753"><path d="m2.2 2h11.5l-2.5 12h-6.4z" opacity=".35"/><path d="m.9609375 1 .2617187 1.2109375 2.7714844 12.7890625h8.0195314l2.916016-14zm2.4785156 2h9.0312499l-2.083984 10h-4.7792971z"/></g></svg>

<svg xmlns="http://www.w3.org/2000/svg" viewBox="0 0 16 16">
  <path
     style="fill:#555753;opacity:0.35"
     d="M 2.2,2 H 13.7 L 11.2,14 H 4.8 Z"
     />
  <path
     style="fill:#555753"
     d="M 0.9609375,1 1.2226562,2.2109375 3.9941406,15 H 12.013672 L 14.929688,1 Z M 3.4394531,3 H 12.470703 L 10.386719,13 H 5.6074219 Z"
     />
</svg>
